picto/taxi-left-framed.svg

<svg class="color-immutable" width="30" height="30" viewBox="0 0 30 30" fill="none" xmlns="http://www.w3.org/2000/svg"><path d="M30 0H0V30H30V0Z" fill="#2D327D"/><path d="M25.5 3C26.325 3 27 3.675 27 4.5V25.5C27 26.325 26.325 27 25.5 27H4.5C3.675 27 3 26.325 3 25.5V4.5C3 3.675 3.675 3 4.5 3H25.5ZM25.5 2.625H4.5C3.46613 2.625 2.625 3.46613 2.625 4.5V25.5C2.625 26.5339 3.46613 27.375 4.5 27.375H25.5C26.5339 27.375 27.375 26.5339 27.375 25.5V4.5C27.375 3.46613 26.5339 2.625 25.5 2.625Z" fill="white"/><path d="M14.25 14.6438H15V16.1438H14.25V14.6438Z" fill="white"/><path d="M21.4201 16.7357C21.209 16.5246 20.923 16.4062 20.6245 16.4062H14.1405C13.8424 16.4062 13.556 16.5246 13.3452 16.7357L10.7312 19.3495L6.34387 19.7136C6.14947 19.7296 6 19.8922 6 20.0872V22.4251C6 22.6319 6.16792 22.8 6.37507 22.8H6.78743V22.3688C6.78743 21.1267 7.7955 20.1188 9.03758 20.1188C10.2796 20.1188 11.2875 21.1267 11.2875 22.3688V22.8H18.75V22.3688C18.75 21.1267 19.7579 20.1188 20.9999 20.1188C22.242 20.1188 23.2499 21.1267 23.2499 22.3688V22.8H23.6248C23.8318 22.8 24.0001 22.6318 24.0001 22.4251V19.7815C24.0001 19.4831 23.8814 19.1971 23.6704 18.986L21.4201 16.7357ZM16.9152 17.494L16.9129 19.0316C16.9127 19.2386 16.745 19.4061 16.538 19.4061H12.2786C12.1543 19.4061 12.0534 19.3054 12.0534 19.1813C12.0534 19.1214 12.077 19.0643 12.1194 19.0221L13.9129 17.2285C13.9832 17.1581 14.0788 17.1187 14.1782 17.1187H16.5403C16.7473 17.1187 16.9153 17.2866 16.9153 17.4939V17.494H16.9152ZM22.4867 19.4061H18.002C17.7951 19.4061 17.6271 19.2382 17.6271 19.0312V17.4938C17.6271 17.2866 17.795 17.1186 18.002 17.1186H20.5871C20.6866 17.1186 20.7819 17.1581 20.8522 17.2284L22.6456 19.022C22.688 19.0642 22.7117 19.1213 22.7117 19.1813C22.7117 19.3054 22.6107 19.4061 22.4867 19.4061Z" fill="white"/><path fill-rule="evenodd" clip-rule="evenodd" d="M21.0165 23.3363C20.4989 23.3363 20.079 22.9163 20.079 22.3988C20.079 21.8812 20.4988 21.4613 21.0165 21.4613C21.534 21.4613 21.9538 21.8812 21.9538 22.3988C21.9538 22.9163 21.534 23.3363 21.0165 23.3363ZM20.9955 20.6784C20.0536 20.6784 19.2891 21.443 19.2891 22.3848C19.2891 23.3269 20.0537 24.0912 20.9955 24.0912C21.9372 24.0912 22.7018 23.3269 22.7018 22.3848C22.7018 21.443 21.9372 20.6784 20.9955 20.6784Z" fill="white"/><path fill-rule="evenodd" clip-rule="evenodd" d="M9.03906 23.3363C8.52164 23.3363 8.10164 22.9163 8.10164 22.3988C8.10164 21.8812 8.52164 21.4613 9.03906 21.4613C9.55664 21.4613 9.97664 21.8812 9.97664 22.3988C9.97664 22.9163 9.55656 23.3363 9.03906 23.3363ZM9.03899 20.6924C8.09714 20.6924 7.33289 21.457 7.33289 22.3988C7.33289 23.3408 8.09714 24.1052 9.03899 24.1052C9.98091 24.1052 10.7454 23.3409 10.7454 22.3988C10.7453 21.457 9.98091 20.6924 9.03899 20.6924Z" fill="white"/><path d="M7.8534 6V6.41528H7.17053V8.24865H6.67988V6.41528H6V6H7.8534Z" fill="white"/><path d="M9.3299 8.24865H8.87465C8.85515 8.18303 8.8454 8.12715 8.8454 8.08103C8.70598 8.22353 8.52598 8.29485 8.30555 8.29485C8.13328 8.29485 7.99895 8.25488 7.90257 8.17485C7.7918 8.0826 7.73645 7.9539 7.73645 7.78883C7.73645 7.5786 7.83133 7.43303 8.021 7.35203C8.09788 7.31918 8.2394 7.28895 8.4455 7.26128C8.62288 7.23773 8.73335 7.21485 8.777 7.1928C8.82058 7.17075 8.84233 7.12643 8.84233 7.05975C8.84233 6.91313 8.7449 6.83978 8.55013 6.83978C8.44655 6.83978 8.37095 6.85823 8.32325 6.89513C8.27555 6.93203 8.24405 6.99615 8.22868 7.08735H7.80725C7.8206 6.90075 7.8908 6.75998 8.01793 6.66518C8.14505 6.5703 8.32602 6.5229 8.56085 6.5229C8.82027 6.5229 9.01205 6.5757 9.1361 6.6813C9.19355 6.7305 9.23173 6.7833 9.2507 6.8397C9.26968 6.8961 9.27913 6.98528 9.27913 7.1073C9.27913 7.13295 9.27755 7.24575 9.27448 7.4457C9.27245 7.64768 9.2714 7.76355 9.2714 7.79333C9.2714 7.91535 9.275 8.00483 9.2822 8.06175C9.2894 8.11875 9.3053 8.181 9.3299 8.24865ZM8.83925 7.43813C8.7818 7.47405 8.67725 7.50218 8.52545 7.52273C8.4188 7.53915 8.34193 7.56015 8.29475 7.5858C8.22808 7.62173 8.19478 7.6827 8.19478 7.7688C8.19478 7.83855 8.21683 7.89285 8.26093 7.93185C8.30503 7.97085 8.36653 7.99028 8.4455 7.99028C8.57675 7.99028 8.68288 7.94415 8.76388 7.85183C8.7926 7.82003 8.81233 7.78695 8.82313 7.7526C8.83393 7.71825 8.83925 7.67288 8.83925 7.61648V7.43813Z" fill="white"/><path d="M11.1326 6.56911L10.5942 7.34888L11.2002 8.24866H10.685L10.3389 7.70416L10.0005 8.24866H9.49292L10.0851 7.35961L9.54527 6.56903H10.0574L10.3496 7.01971L10.6342 6.56903H11.1326V6.56911Z" fill="white"/><path d="M11.8216 6V6.40147H11.3756V6H11.8216ZM11.8216 6.57217V8.24873H11.3756V6.57217H11.8216Z" fill="white"/></svg>

<svg class="color-immutable" width="30" height="30" viewBox="0 0 30 30" fill="none" xmlns="http://www.w3.org/2000/svg"><g clip-path="url(#a)"><path d="M30 0H0v30h30V0Z" fill="#2D327D"/><path d="M25.5 3c.825 0 1.5.675 1.5 1.5v21c0 .825-.675 1.5-1.5 1.5h-21c-.825 0-1.5-.675-1.5-1.5v-21C3 3.675 3.675 3 4.5 3h21Zm0-.375h-21A1.877 1.877 0 0 0 2.625 4.5v21c0 1.034.841 1.875 1.875 1.875h21a1.877 1.877 0 0 0 1.875-1.875v-21A1.877 1.877 0 0 0 25.5 2.625Z" fill="#fff"/><path d="M14.25 14.644H15v1.5h-.75v-1.5ZM21.42 16.736a1.125 1.125 0 0 0-.796-.33h-6.483c-.299 0-.585.119-.796.33l-2.614 2.613-4.387.365a.375.375 0 0 0-.344.373v2.338c0 .207.168.375.375.375h.412v-.431a2.25 2.25 0 0 1 4.5 0v.431h7.463v-.431a2.25 2.25 0 0 1 4.5 0v.431h.375a.376.376 0 0 0 .375-.375v-2.643c0-.299-.119-.585-.33-.796l-2.25-2.25Zm-4.505.758-.002 1.538a.375.375 0 0 1-.375.374h-4.26a.225.225 0 0 1-.159-.384l1.794-1.793c.07-.07.166-.11.265-.11h2.362c.207 0 .375.168.375.375Zm5.572 1.912h-4.485a.375.375 0 0 1-.375-.375v-1.537c0-.207.168-.375.375-.375h2.585c.1 0 .195.04.265.11l1.794 1.793a.224.224 0 0 1-.16.384Z" fill="#fff"/><path fill-rule="evenodd" clip-rule="evenodd" d="M21.017 23.336a.938.938 0 1 1 0-1.875.938.938 0 0 1 0 1.875Zm-.021-2.658a1.707 1.707 0 1 0 .001 3.415 1.707 1.707 0 0 0-.002-3.415ZM9.04 23.336a.938.938 0 1 1 0-1.875.938.938 0 0 1 0 1.875Zm-.001-2.644a1.707 1.707 0 1 0 .002 3.414 1.707 1.707 0 0 0-.002-3.414Z" fill="#fff"/><path d="M7.853 6v.415h-.682V8.25H6.68V6.415H6V6h1.853ZM9.33 8.249h-.455a.606.606 0 0 1-.03-.168.722.722 0 0 1-.54.214c-.172 0-.306-.04-.402-.12a.475.475 0 0 1-.167-.386c0-.21.095-.356.285-.437.077-.033.218-.063.424-.09.178-.024.288-.047.332-.07.044-.021.065-.066.065-.132 0-.147-.097-.22-.292-.22-.103 0-.18.018-.227.055-.047.037-.079.101-.094.192h-.422a.545.545 0 0 1 .21-.422c.128-.095.309-.142.544-.142.26 0 .451.053.575.158.058.05.096.102.115.159a.911.911 0 0 1 .028.267 68.859 68.859 0 0 0-.008.686c0 .122.004.212.011.269.007.057.023.119.048.187Zm-.49-.81a.866.866 0 0 1-.315.084.757.757 0 0 0-.23.063c-.067.036-.1.097-.1.183 0 .07.022.124.066.163a.27.27 0 0 0 .184.058.403.403 0 0 0 .319-.138.27.27 0 0 0 .06-.1.467.467 0 0 0 .015-.136v-.178ZM11.133 6.57l-.539.779.606.9h-.515l-.346-.545L10 8.25h-.508l.592-.89-.54-.79h.512l.293.45.284-.45h.499ZM11.822 6v.401h-.446V6h.446Zm0 .572V8.25h-.446V6.572h.446Z" fill="#fff"/></g><defs><clipPath id="a"><path fill="#fff" d="M0 0h30v30H0z"/></clipPath></defs></svg>
